svgs/duotone/floppy-disks.svg

<svg xmlns="http://www.w3.org/2000/svg" viewBox="0 0 512 512"><!-- Font Awesome Pro 6.0.0-alpha2 by @fontawesome - https://fontawesome.com License - https://fontawesome.com/license (Commercial License) --><defs><style>.fa-secondary{opacity:.4}</style></defs><path d="M497.938 97.938L414.062 14.062C406.312 6.297 391.094 0 380.125 0H144C117.5 0 96 21.484 96 48V368C96 394.516 117.5 416 144 416H464C490.5 416 512 394.516 512 368V131.875C512 120.906 505.688 105.703 497.938 97.938ZM288 352C252.656 352 224 323.344 224 288S252.656 224 288 224S352 252.656 352 288S323.344 352 288 352ZM384 144C384 152.836 376.836 160 368 160H176C167.164 160 160 152.836 160 144V80C160 71.162 167.164 64 176 64H368C376.836 64 384 71.162 384 80V144Z" class="fa-secondary"/><path d="M80 464C62.326 464 48 449.672 48 432V96C21.49 96 0 117.492 0 144V448C0 483.344 28.654 512 64 512H368C394.51 512 416 490.508 416 464H80ZM288 352C323.346 352 352 323.346 352 288C352 252.652 323.346 224 288 224S224 252.652 224 288C224 323.346 252.654 352 288 352Z" class="fa-primary"/></svg>

<svg xmlns="http://www.w3.org/2000/svg" viewBox="0 0 512 512"><!--! Font Awesome Pro 6.3.0 by @fontawesome - https://fontawesome.com License - https://fontawesome.com/license (Commercial License) Copyright 2023 Fonticons, Inc. --><defs><style>.fa-secondary{opacity:.4}</style></defs><path class="fa-primary" d="M288 352c35.35 0 64-28.65 64-64c0-35.35-28.65-64-64-64S224 252.7 224 288C224 323.3 252.7 352 288 352zM392 512h-272C53.83 512 0 458.2 0 392v-272C0 106.8 10.75 96 24 96S48 106.8 48 120v272c0 39.7 32.3 72 72 72h272c13.25 0 24 10.75 24 24S405.3 512 392 512z"/><path class="fa-secondary" d="M497.9 97.94l-83.88-83.88C406.3 6.294 391.1 0 380.1 0H144C117.5 0 96 21.48 96 48v320C96 394.5 117.5 416 144 416h320c26.5 0 48-21.48 48-48V131.9C512 120.9 505.7 105.7 497.9 97.94zM288 352c-35.34 0-64-28.66-64-64s28.66-64 64-64s64 28.66 64 64S323.3 352 288 352zM384 144C384 152.8 376.8 160 368 160h-192C167.2 160 160 152.8 160 144v-64C160 71.16 167.2 64 176 64h192C376.8 64 384 71.16 384 80V144z"/></svg>
